dist/img/sprites/icon_bedroom.svg

<svg width="25" height="22" viewBox="0 0 25 22" fill="none" xmlns="http://www.w3.org/2000/svg">
<path d="M25.0001 9.66476C25.0001 9.05815 24.7918 8.45805 24.4105 7.9829C24.0324 7.50797 23.4948 7.17147 22.9019 7.03276H22.895C22.7839 7.00837 22.6696 6.98433 22.5585 6.96001V3.89784C22.5585 3.15564 21.9793 2.52464 21.2409 2.46219C20.6271 2.41004 20.145 1.92454 20.0929 1.31075C20.0304 0.568606 19.4166 0.00683594 18.6677 0.00683594H6.33587C5.58682 0.00683594 4.9521 0.582559 4.88965 1.31407C4.83784 1.92792 4.35579 2.40997 3.74538 2.46213C3.0067 2.52457 2.43097 3.15557 2.43097 3.89771V6.95995C2.32355 6.98433 2.21613 7.00492 2.10498 7.02924H2.09814C1.50521 7.1645 0.971008 7.50445 0.589473 7.97938C0.207938 8.45459 0 9.0547 0 9.66138V16.469C0 17.2458 0.530478 18.0816 1.39061 18.0816H2.63918L2.99979 20.1173C2.99979 20.1206 3.00318 20.1276 3.00318 20.131C3.00318 20.1344 3.00318 20.1379 3.0067 20.1413C3.13153 20.7067 3.64487 21.0986 4.2552 21.0986C4.87936 21.0986 5.4204 20.6755 5.51753 20.1173V20.1135L5.87813 18.0782H19.1219L19.4722 20.1101V20.1172C19.5796 20.6926 20.0998 21.095 20.7345 21.095C21.3484 21.095 21.8788 20.6892 21.9968 20.1275V20.1206C21.9968 20.1172 21.9968 20.1135 22.0002 20.1135L22.3609 18.0781H23.6301C24.4867 18.0503 25.0001 17.2351 25.0001 16.4654V9.66476ZM3.61365 3.89784C3.61365 3.76265 3.71761 3.64812 3.84935 3.63775C5.03548 3.53724 5.96808 2.60091 6.06893 1.41478C6.07923 1.29016 6.20067 1.18592 6.33932 1.18592H18.671C18.8062 1.18592 18.9105 1.27959 18.9208 1.41133C19.0214 2.60091 19.9577 3.54069 21.1438 3.63775C21.2755 3.64812 21.383 3.76611 21.383 3.89784V6.72065C21.1327 6.6724 20.8819 6.62734 20.6305 6.58546C20.634 6.56134 20.6374 6.53703 20.6374 6.50926V5.7808C20.6374 5.08045 20.1345 4.47005 19.441 4.3314C17.8075 4.00175 16.1533 4.00547 14.5201 4.33485C13.8369 4.4735 13.3409 5.08045 13.3409 5.7808V5.87447C12.785 5.86073 12.2289 5.85728 11.673 5.86411V5.74957C11.673 5.04922 11.1734 4.44234 10.4834 4.30024C8.85015 3.97052 7.19573 3.97052 5.5625 4.30024C4.8759 4.43882 4.37638 5.04922 4.37638 5.74957V6.48826C4.37638 6.51603 4.37638 6.54041 4.37983 6.56818C4.12636 6.61466 3.87325 6.66316 3.62055 6.71367V3.89778L3.61365 3.89784ZM14.5166 5.78432C14.5166 5.63876 14.6138 5.52077 14.7489 5.493C16.2263 5.19485 17.7278 5.19485 19.2052 5.48962C19.3473 5.51739 19.4582 5.64567 19.4582 5.78425V6.39811C17.804 6.15204 16.1708 5.99253 14.5166 5.91633V5.78432ZM5.54875 6.36709V5.7533C5.54875 5.61093 5.64927 5.48603 5.78791 5.45826C7.26536 5.1601 8.76677 5.1601 10.2442 5.45826C10.3863 5.48603 10.4868 5.61093 10.4868 5.74951V5.89195C10.4175 5.89533 10.3447 5.89533 10.2754 5.89879C8.77714 5.96124 7.41084 6.08268 6.08959 6.28032C5.91281 6.31148 5.73237 6.33932 5.54875 6.36709ZM2.36507 8.18075C3.88749 7.84764 5.12543 7.61539 6.26306 7.44897C7.54258 7.26163 8.87074 7.14018 10.3273 7.08146C11.6555 7.02592 13.0358 7.03276 14.4332 7.09521C17.1627 7.21665 19.8469 7.57387 22.6453 8.18421C23.3425 8.34717 23.8279 8.95391 23.8279 9.66483V16.4724C23.8279 16.6838 23.7134 16.8989 23.5988 16.9058H1.39061C1.31096 16.9058 1.17895 16.7047 1.17895 16.4724V12.994H14.6275C14.8669 12.994 15.0611 12.7998 15.0611 12.5606C15.0611 12.3215 14.8669 12.1272 14.6275 12.1272H1.1826V9.66138C1.1826 8.95391 1.66817 8.34378 2.36507 8.18075ZM4.36263 19.8881C4.34177 19.9021 4.30018 19.9231 4.2552 19.9231C4.20305 19.9231 4.16498 19.8987 4.15814 19.8881L3.83906 18.0816H4.68165L4.36263 19.8881ZM20.8454 19.8918C20.8316 19.9056 20.79 19.9265 20.738 19.9265C20.6859 19.9265 20.6477 19.909 20.6305 19.8988L20.3183 18.085H21.1645L20.8454 19.8918Z" fill="#23272B"/>
</svg>

<svg width="25" height="22" viewBox="0 0 25 22" fill="none" xmlns="http://www.w3.org/2000/svg"><path d="M25 9.665a2.7 2.7 0 00-2.098-2.632h-.007l-.337-.073V3.898a1.45 1.45 0 00-1.317-1.436 1.258 1.258 0 01-1.148-1.151A1.42 1.42 0 0018.668.007H6.336c-.75 0-1.384.576-1.446 1.307a1.254 1.254 0 01-1.145 1.148 1.446 1.446 0 00-1.314 1.436V6.96c-.107.024-.215.045-.326.07h-.007A2.7 2.7 0 000 9.661v6.807c0 .777.53 1.613 1.39 1.613h1.25L3 20.117l.003.014c0 .003 0 .007.004.01.125.566.638.958 1.248.958.624 0 1.165-.424 1.263-.982v-.004l.36-2.035h13.244l.35 2.032v.007c.108.576.628.978 1.262.978.614 0 1.145-.406 1.263-.967v-.007c0-.004 0-.008.003-.008l.36-2.035h1.27c.857-.028 1.37-.843 1.37-1.613v-6.8zM3.614 3.898a.26.26 0 01.235-.26 2.43 2.43 0 002.22-2.223c.01-.125.132-.23.27-.23h12.332c.135 0 .24.095.25.226a2.431 2.431 0 002.223 2.227c.132.01.239.128.239.26V6.72a27.55 27.55 0 00-.752-.136.512.512 0 00.006-.076V5.78c0-.7-.503-1.311-1.196-1.45a12.372 12.372 0 00-4.92.004 1.478 1.478 0 00-1.18 1.446v.093a45.087 45.087 0 00-1.668-.01V5.75c0-.7-.5-1.308-1.19-1.45a12.364 12.364 0 00-4.92 0 1.484 1.484 0 00-1.187 1.45v.738c0 .028 0 .052.004.08-.254.047-.507.095-.76.146V3.898h-.006zm10.903 1.886c0-.145.097-.263.232-.291a11.275 11.275 0 014.456-.003.313.313 0 01.253.294v.614a48.634 48.634 0 00-4.941-.482v-.132zm-8.968.583v-.614c0-.142.1-.267.239-.295a11.212 11.212 0 014.456 0 .3.3 0 01.243.292v.142c-.07.003-.142.003-.212.007a39.072 39.072 0 00-4.185.381c-.177.031-.358.06-.541.087zM2.365 8.181a56.162 56.162 0 013.898-.732 38.53 38.53 0 014.064-.368 48.18 48.18 0 0112.318 1.103c.698.163 1.183.77 1.183 1.48v6.808c0 .212-.115.427-.23.434H1.392c-.08 0-.212-.201-.212-.434v-3.478h13.448a.434.434 0 000-.867H1.183V9.661a1.52 1.52 0 011.182-1.48zm1.998 11.707a.206.206 0 01-.108.035c-.052 0-.09-.024-.097-.035l-.319-1.806h.843l-.32 1.806zm16.482.004a.168.168 0 01-.107.035.215.215 0 01-.107-.028l-.313-1.814h.846l-.319 1.807z" fill="#23272B"/></svg>
